X:888
T:Aberdeen Alternative Festival march
R:March
C:Alasdair Fraser
S:SF Scottish Fiddlers
Z:Transcription: Mike Long
M:C
L:1/8
K:G
G>A|\
"G"B>A B<d "D"A>G A<B|"G"G>A B<G "C"e2 e>f|\
"G"g>d e<g "Em"B<d (3(GAB)|"Am/C"c<E A>B "D"c2 B>A|
"G"B2 "C"c2 "G"d2 g>a|"G"b>a g<d "C"e2 g>a|\
"G"b>a g<d "C"e<g "D"B>A |"G"B2 G2 G2:|
g>a|\
"G"b>a g<d "C"e2 d>e|"G"g>e d<e B2 A>G|\
"C"c2 B>A "G"B<de<g|"D"B2 A2 A2 g>a|
"G"b>a g<d "C"e2 d>e|"G"g>e d<e B2 A>G|\
"C"c2 B>A "G"B<d"D"e<g|"G"B2 G2 G2 g>a||
"G"b>a g<d "C"e2 d>e|"G"g>e d<e "Em"B2 A>G|\
"C"c2 B>A "G"B<de<g|"D"B2 A2 A2 G>A|
"G"B2 "C"c2 "G"d2 g>a|"G"b>a g<d "C"e2 g>a|\
"G"b>a g<d "C"e<g "D"B>A|"G"B2 G2 G2|]
